<?xml version="1.0" encoding="UTF-8"?>
<map version="1.8" tiledversion="1.8.2" orientation="orthogonal" renderorder="right-down" width="64" height="64" tilewidth="16" tileheight="16" infinite="0" nextlayerid="14" nextobjectid="1">
 <tileset firstgid="1" source="Resources/pixelinterior_LRK_v1.1/floorswalls_LRK.tsx"/>
 <tileset firstgid="225" source="Resources/Interiors_free_32x32.tsx"/>
 <tileset firstgid="5921" source="Resources/Tileset_32x32_16.tsx"/>
 <tileset firstgid="6593" source="Resources/Grass.tsx"/>
 <tileset firstgid="6670" source="Resources/Basic_Grass_Biom_things.tsx"/>
 <layer id="12" name="background" width="64" height="64" locked="1">
  <data encoding="csv">
6661,6661,6661,6661,6661,6661,6621,6661,6661,6661,6661,6661,6661,6661,6661,6661,6661,6661,6621,6621,6661,6661,6661,6661,6661,6661,6661,6661,6661,6661,6661,6661,6661,6661,6661,6661,6661,6661,6661,6621,6621,6621,6621,6621,6621,6661,6661,6661,6661,6661,6661,6661,6661,6661,6661,6661,6661,6661,6661,6661,6661,6661,6661,6661,
6661,6661,6621,6661,6661,6661,6661,6661,6661,6661,6661,6661,6661,6661,6661,6661,6661,6661,6661,6621,6661,6661,6661,6661,6661,6661,6661,6661,6661,6661,6661,6661,6661,6661,6661,6661,6621,6621,6621,6661,6661,6661,6661,6621,6661,6661,6661,6661,6661,6621,6661,6661,6661,6661,6661,6661,6646,6646,6661,6661,6661,6661,6661,6661,
6661,6661,6621,6621,6661,6661,6661,6661,6621,6621,6661,6646,6661,6646,6646,6661,6661,6661,6621,6661,6661,6661,6646,6661,6661,6661,6661,6661,6661,6661,6661,6661,6661,6621,6621,6621,6661,6661,6646,6661,6661,6661,6621,6621,6661,6661,6661,6646,6661,6621,6621,6661,6661,6661,6661,6646,6646,6661,6661,6661,6661,6661,6661,6661,
6661,6661,6661,6621,6621,6661,6661,6661,6621,6661,6661,6646,6646,6646,6661,6661,6621,6621,6661,6661,6661,6621,6646,6646,6646,6646,6646,6646,6661,6621,6621,6621,6621,6661,6661,6661,6661,6661,6646,6661,6661,6661,6661,6661,6661,6661,6661,6661,6646,6646,6621,6621,6646,6646,6646,6661,6661,6661,6661,6661,6661,6661,6661,6661,
6661,6661,6661,6621,6646,6661,6661,6661,6661,6661,6661,6661,6621,6621,6621,6621,6661,6646,6646,6646,6661,6661,6621,6621,6661,6621,6621,6621,6621,6646,6646,6646,6646,6646,6661,6661,6661,6661,6646,6661,6661,6661,6661,6661,6646,6661,6621,6661,6661,6661,6621,6621,6621,6621,6661,6661,6661,6661,6661,6661,6661,6661,6661,6661,
6661,6661,6661,6621,6661,6646,6661,6661,6661,6661,6661,6661,6661,6661,6661,6661,6661,6661,6661,6661,6646,6646,6621,6621,6621,6661,6661,6661,6661,6646,6646,6661,6661,6661,6646,6661,6661,6661,6661,6646,6646,6646,6646,6621,6621,6621,6621,6661,6661,6661,6621,6661,6621,6621,6661,6661,6661,6661,6661,6661,6661,6661,6661,6661,
6661,6661,6661,6661,6661,6646,6646,6661,6661,6661,6661,6661,6661,6661,6646,6661,6661,6661,6646,6621,6621,6621,6621,6646,6661,6661,6646,6661,6661,6661,6661,6661,6664,6646,6646,6646,6661,6661,6621,6621,6621,6621,6621,6621,6646,6661,6621,6621,6661,6621,6621,6661,6621,6621,6661,6661,6661,6621,6661,6661,6661,6661,6661,6661,
6661,6661,6661,6661,6661,6646,6661,6646,6646,6646,6664,6664,6661,6661,6646,6661,6621,6621,6621,6621,6621,6661,6664,6646,6661,6661,6646,6646,6646,6664,6646,6664,6664,6664,6664,6646,6661,6661,6621,6621,6621,6661,6661,6661,6661,6661,6661,6621,6621,6621,6661,6661,6661,6661,6661,6661,6661,6621,6661,6661,6661,6661,6661,6661,
6661,6621,6621,6621,6621,6661,6621,6661,6661,6661,6661,6661,6661,6661,6661,6661,6661,6661,6661,6646,6646,6646,6646,6661,6661,6661,6661,6661,6661,6661,6646,6661,6661,6661,6661,6661,6661,6661,6621,6621,6621,6661,6661,6661,6661,6661,6661,6661,6661,6661,6661,6661,6661,6661,6661,6621,6661,6621,6661,6661,6661,6661,6661,6661,
6661,6661,6661,6661,6661,6661,6621,6621,6661,6661,6661,6661,6661,6661,6661,6661,6661,6661,6661,6661,6661,6661,6661,6661,6661,6661,6661,6661,6661,6661,6661,6661,6661,6661,6661,6661,6661,6661,6661,6661,6661,6661,6661,6661,6661,6661,6661,6661,6661,6661,6661,6621,6621,6661,6621,6661,6621,6621,6661,6661,6661,6661,6661,6661,
6661,6661,6661,6661,6621,6621,6621,6621,6661,6661,6661,6661,6661,6661,6661,6661,6661,6661,6661,6661,6661,6661,6661,6661,6661,6661,6661,6661,6661,6661,6661,6661,6661,6661,6661,6661,6661,6661,6661,6661,6661,6661,6661,6661,6661,6661,6661,6661,6661,6661,6661,6661,6621,6621,6621,6661,6621,6661,6661,6661,6661,6661,6661,6661,
6661,6661,6661,6621,6621,6661,6664,6661,6621,6661,6661,6661,6661,6661,6661,6661,6661,6661,6661,6661,6661,6661,6661,6661,6661,6661,6661,6661,6661,6661,6661,6661,6661,6661,6661,6661,6661,6661,6661,6661,6661,6661,6661,6661,6661,6661,6661,6661,6661,6661,6621,6621,6661,6661,6621,6621,6621,6661,6661,6661,6661,6661,6661,6661,
6661,6661,6661,6661,6661,6661,6664,6621,6661,6661,6661,6661,6661,6661,6661,6661,6661,6661,6661,6661,6661,6661,6661,6661,6661,6661,6661,6661,6661,6661,6661,6661,6661,6661,6661,6661,6661,6661,6661,6661,6661,6661,6661,6661,6661,6661,6661,6661,6661,6661,6661,6661,6664,6664,6621,6621,6621,6661,6661,6661,6661,6661,6661,6661,
6661,6661,6661,6661,6661,6661,6621,6621,6661,6661,6621,6661,6661,6661,6661,6661,6661,6661,6661,6661,6661,6661,6661,6661,6661,6661,6661,6661,6661,6661,6661,6661,6661,6661,6661,6661,6661,6661,6661,6661,6661,6661,6661,6661,6661,6661,6661,6661,6661,6661,6661,6661,6661,6661,6621,6661,6661,6661,6661,6661,6661,6661,6661,6661,
6661,6661,6661,6661,6661,6661,6661,6661,6661,6661,6621,6661,6661,6661,6661,6661,6661,6661,6661,6661,6661,6661,6661,6661,6661,6661,6661,6661,6661,6661,6661,6661,6661,6661,6661,6661,6661,6661,6661,6661,6661,6661,6661,6661,6661,6661,6661,6661,6661,6661,6661,6661,6661,6661,6661,6646,6646,6661,6661,6661,6661,6661,6661,6661,
6661,6661,6661,6661,6661,6661,6661,6661,6661,6661,6621,6661,6661,6661,6661,6661,6661,6661,6661,6661,6661,6661,6661,6661,6661,6661,6661,6661,6661,6661,6661,6661,6661,6661,6661,6661,6661,6661,6661,6661,6661,6661,6661,6661,6661,6661,6661,6661,6661,6661,6661,6664,6621,6661,6621,6621,6621,6661,6661,6661,6661,6661,6661,6661,
6661,6661,6661,6661,6621,6661,6661,6661,6661,6621,6621,6661,6661,6661,6661,6661,6661,6661,6661,6661,6661,6661,6661,6661,6661,6661,6661,6661,6661,6661,6661,6661,6661,6661,6661,6661,6661,6661,6661,6661,6661,6661,6661,6661,6661,6661,6661,6661,6661,6661,6661,6664,6621,6621,6621,6661,6646,6661,6661,6661,6661,6661,6661,6661,
6661,6661,6661,6661,6621,6621,6661,6661,6661,6621,6621,6661,6661,6661,6661,6661,6661,6661,6661,6661,6661,6661,6661,6661,6661,6661,6661,6661,6661,6661,6661,6661,6661,6661,6661,6661,6661,6661,6661,6661,6661,6661,6661,6661,6661,6661,6661,6661,6661,6661,6661,6661,6661,6621,6661,6661,6661,6646,6661,6661,6661,6661,6661,6661,
6661,6661,6661,6661,6608,6621,6661,6661,6661,6621,6621,6661,6661,6661,6661,6661,6661,6661,6661,6661,6661,6661,6661,6661,6661,6661,6661,6661,6661,6661,6661,6661,6661,6661,6661,6661,6661,6661,6661,6661,6661,6661,6661,6661,6661,6661,6661,6661,6661,6661,6661,6661,6661,6621,6661,6661,6661,6646,6661,6661,6661,6661,6661,6661,
6661,6661,6661,6661,6661,6621,6621,6661,6661,6621,6621,6661,6661,6661,6661,6661,6661,6661,6661,6661,6661,6661,6661,6661,6661,6661,6661,6661,6661,6661,6661,6661,6661,6661,6661,6661,6661,6661,6661,6661,6661,6661,6661,6661,6661,6661,6661,6661,6661,6661,6661,6661,6661,6621,6661,6661,6661,6661,6661,6661,6661,6661,6661,6661,
6661,6661,6661,6621,6621,6661,6621,6661,6661,6621,6621,6661,6661,6661,6661,6661,6661,6661,6661,6661,6661,6661,6661,6661,6661,6661,6661,6661,6661,6661,6661,6661,6661,6661,6661,6661,6661,6661,6661,6661,6661,6661,6661,6661,6661,6661,6661,6661,6661,6661,6661,6661,6661,6621,6661,6661,6661,6661,6661,6661,6661,6661,6661,6661,
6661,6661,6661,6661,6621,6621,6621,6661,6661,6621,6661,6661,6661,6661,6661,6661,6661,6661,6661,6661,6661,6661,6661,6661,6661,6661,6661,6661,6661,6661,6661,6661,6661,6661,6661,6661,6661,6661,6661,6661,6661,6661,6661,6661,6661,6661,6661,6661,6661,6661,6661,6661,6661,6661,6661,6621,6661,6661,6661,6661,6661,6661,6661,6661,
6661,6661,6661,6661,6661,6661,6661,6661,6661,6621,6661,6661,6661,6661,6661,6661,6661,6661,6661,6661,6661,6661,6661,6661,6661,6661,6661,6661,6661,6661,6661,6661,6661,6661,6661,6661,6661,6661,6661,6661,6661,6661,6661,6661,6661,6661,6661,6661,6661,6661,6661,6661,6661,6661,6646,6621,6664,6661,6661,6661,6661,6661,6661,6661,
6661,6661,6661,6661,6661,6661,6621,6621,6661,6621,6661,6661,6661,6661,6661,6661,6661,6661,6661,6661,6661,6661,6661,6661,6661,6661,6661,6661,6661,6661,6661,6661,6661,6661,6661,6661,6661,6661,6661,6661,6661,6661,6661,6661,6661,6661,6661,6661,6661,6661,6661,6661,6661,6646,6646,6621,6661,6661,6661,6661,6661,6661,6661,6661,
6661,6661,6661,6661,6661,6608,6661,6664,6621,6621,6661,6661,6661,6661,6661,6661,6661,6661,6661,6661,6661,6661,6661,6661,6661,6661,6661,6661,6661,6661,6661,6661,6661,6661,6661,6661,6661,6661,6661,6661,6661,6661,6661,6661,6661,6661,6661,6661,6661,6661,6661,6661,6661,6661,6661,6661,6661,6661,6661,6661,6661,6661,6661,6661,
6661,6661,6661,6661,6608,6608,6661,6664,6661,6661,6661,6661,6661,6661,6661,6661,6661,6661,6661,6661,6661,6661,6661,6661,6661,6661,6661,6661,6661,6661,6661,6661,6661,6661,6661,6661,6661,6661,6661,6661,6661,6661,6661,6661,6661,6661,6661,6661,6661,6661,6661,6661,6661,6661,6661,6661,6661,6621,6621,6661,6661,6661,6661,6661,
6661,6661,6661,6661,6661,6661,6661,6664,6661,6661,6661,6661,6661,6661,6661,6661,6661,6661,6661,6661,6661,6661,6661,6661,6661,6661,6661,6661,6661,6661,6661,6661,6661,6661,6661,6661,6661,6661,6661,6661,6661,6661,6661,6661,6661,6661,6661,6661,6661,6661,6661,6661,6661,6664,6664,6661,6621,6621,6661,6661,6661,6661,6661,6661,
6661,6661,6661,6661,6661,6661,6661,6664,6661,6661,6661,6661,6661,6661,6661,6661,6661,6661,6661,6661,6661,6661,6661,6661,6661,6661,6661,6661,6661,6661,6661,6661,6661,6661,6661,6661,6661,6661,6661,6661,6661,6661,6661,6661,6661,6661,6661,6661,6661,6661,6661,6661,6661,6664,6661,6661,6621,6661,6661,6661,6661,6661,6661,6661,
6661,6661,6661,6661,6661,6661,6661,6664,6661,6661,6661,6661,6661,6661,6661,6661,6661,6661,6661,6661,6661,6661,6661,6661,6661,6661,6661,6661,6661,6661,6661,6661,6661,6661,6661,6661,6661,6661,6661,6661,6661,6661,6661,6661,6661,6661,6661,6661,6661,6661,6661,6661,6646,6646,6646,6661,6621,6661,6661,6661,6661,6661,6661,6661,
6661,6661,6661,6661,6661,6661,6661,6664,6661,6661,6661,6661,6661,6661,6661,6661,6661,6661,6661,6661,6661,6661,6661,6661,6661,6661,6661,6661,6661,6661,6661,6661,6661,6661,6661,6661,6661,6661,6661,6661,6661,6661,6661,6661,6661,6661,6661,6661,6661,6661,6661,6661,6661,6646,6646,6646,6621,6661,6646,6661,6661,6661,6661,6661,
6661,6661,6661,6661,6661,6661,6661,6664,6661,6661,6661,6661,6661,6661,6661,6661,6661,6661,6661,6661,6661,6661,6661,6661,6661,6661,6661,6661,6661,6661,6661,6661,6661,6661,6661,6661,6661,6661,6661,6661,6661,6661,6661,6661,6661,6661,6661,6661,6661,6661,6661,6661,6661,6661,6646,6646,6661,6661,6661,6661,6661,6661,6661,6661,
6661,6661,6661,6661,6661,6608,6661,6664,6661,6661,6661,6661,6661,6661,6661,6661,6661,6661,6661,6661,6661,6661,6661,6661,6661,6661,6661,6661,6661,6661,6661,6661,6661,6661,6661,6661,6661,6661,6661,6661,6661,6661,6661,6661,6661,6661,6661,6661,6661,6661,6661,6621,6621,6661,6664,6661,6661,6664,6661,6661,6661,6661,6661,6661,
6661,6661,6661,6661,6621,6621,6661,6664,6661,6661,6661,6661,6661,6661,6661,6661,6661,6661,6661,6661,6661,6661,6661,6661,6661,6661,6661,6661,6661,6661,6661,6661,6661,6661,6661,6661,6661,6661,6661,6661,6661,6661,6661,6661,6661,6661,6661,6661,6661,6661,6661,6621,6661,6661,6661,6661,6646,6661,6664,6661,6661,6661,6661,6661,
6661,6661,6661,6661,6621,6661,6661,6661,6661,6661,6661,6661,6661,6661,6661,6661,6661,6661,6661,6661,6661,6661,6661,6661,6661,6661,6661,6661,6661,6661,6661,6661,6661,6661,6661,6661,6661,6661,6661,6661,6661,6661,6661,6661,6661,6661,6661,6661,6661,6661,6621,6621,6661,6664,6661,6661,6646,6664,6664,6661,6661,6661,6661,6661,
6661,6661,6661,6661,6621,6661,6661,6661,6661,6661,6661,6661,6661,6661,6661,6661,6661,6661,6661,6661,6661,6661,6661,6661,6661,6661,6661,6661,6661,6661,6661,6661,6661,6661,6661,6661,6661,6661,6661,6661,6661,6661,6661,6661,6661,6661,6661,6661,6661,6661,6661,6661,6661,6664,6621,6661,6661,6664,6661,6661,6661,6661,6661,6661,
6661,6661,6661,6621,6661,6661,6661,6661,6661,6661,6661,6661,6661,6661,6661,6661,6661,6661,6661,6661,6661,6661,6661,6661,6661,6661,6661,6661,6661,6661,6661,6661,6661,6661,6661,6661,6661,6661,6661,6661,6661,6661,6661,6661,6661,6661,6661,6661,6661,6661,6661,6661,6621,6661,6661,6661,6661,6661,6661,6661,6661,6661,6661,6661,
6661,6661,6661,6621,6661,6661,6661,6661,6661,6661,6661,6661,6661,6661,6661,6661,6661,6661,6661,6661,6661,6661,6661,6661,6661,6661,6661,6661,6661,6661,6661,6661,6661,6661,6661,6661,6661,6661,6661,6661,6661,6661,6661,6661,6661,6661,6661,6661,6661,6661,6661,6621,6621,6661,6661,6661,6661,6661,6661,6661,6661,6661,6661,6661,
6661,6661,6661,6621,6661,6661,6661,6661,6621,6621,6661,6661,6661,6661,6661,6661,6661,6661,6661,6661,6661,6661,6661,6661,6661,6661,6661,6661,6661,6661,6661,6661,6661,6661,6661,6661,6661,6661,6661,6661,6661,6661,6661,6661,6661,6661,6661,6661,6661,6661,6661,6621,6661,6621,6661,6646,6661,6661,6661,6661,6661,6661,6661,6661,
6661,6661,6661,6661,6621,6661,6646,6661,6621,6621,6661,6661,6661,6661,6661,6661,6661,6661,6661,6661,6661,6661,6661,6661,6661,6661,6661,6661,6661,6661,6661,6661,6661,6661,6661,6661,6661,6661,6661,6661,6661,6661,6661,6661,6661,6661,6661,6661,6661,6661,6661,6621,6661,6621,6661,6646,6661,6661,6661,6661,6661,6661,6661,6661,
6661,6661,6661,6621,6661,6661,6646,6661,6621,6621,6661,6661,6661,6661,6661,6661,6661,6661,6661,6661,6661,6661,6661,6661,6661,6661,6661,6661,6661,6661,6661,6661,6661,6661,6661,6661,6661,6661,6661,6661,6661,6661,6661,6661,6661,6661,6661,6661,6661,6661,6661,6621,6661,6621,6646,6646,6661,6661,6661,6661,6661,6661,6661,6661,
6661,6661,6661,6621,6664,6664,6646,6661,6621,6621,6661,6661,6661,6661,6661,6661,6661,6661,6661,6661,6661,6661,6661,6661,6661,6661,6661,6661,6661,6661,6661,6661,6661,6661,6661,6661,6661,6661,6661,6661,6661,6661,6661,6661,6661,6661,6661,6661,6661,6661,6661,6661,6661,6621,6646,6661,6661,6661,6661,6661,6661,6661,6661,6661,
6661,6661,6661,6621,6664,6608,6661,6661,6621,6621,6661,6661,6661,6661,6661,6661,6661,6661,6661,6661,6661,6661,6661,6661,6661,6661,6661,6661,6661,6661,6661,6661,6661,6661,6661,6661,6661,6661,6661,6661,6661,6661,6661,6661,6661,6661,6661,6661,6661,6661,6661,6661,6661,6621,6646,6661,6661,6661,6661,6661,6661,6661,6661,6661,
6661,6661,6661,6621,6661,6608,6661,6661,6661,6661,6661,6661,6661,6661,6661,6661,6661,6661,6661,6661,6661,6661,6661,6661,6661,6661,6661,6661,6661,6661,6661,6661,6661,6661,6661,6661,6661,6661,6661,6661,6661,6661,6661,6661,6661,6661,6661,6661,6661,6661,6661,6661,6661,6661,6646,6646,6661,6661,6661,6661,6661,6661,6661,6661,
6661,6661,6661,6661,6621,6664,6664,6664,6661,6661,6661,6661,6661,6661,6661,6661,6661,6661,6661,6661,6661,6661,6661,6661,6661,6661,6661,6661,6661,6661,6661,6661,6661,6661,6661,6661,6661,6661,6661,6661,6661,6661,6661,6661,6661,6661,6661,6661,6661,6661,6661,6661,6661,6661,6646,6661,6646,6661,6661,6661,6661,6661,6661,6661,
6661,6661,6661,6661,6621,6621,6661,6661,6661,6661,6661,6661,6661,6661,6661,6661,6661,6661,6661,6661,6661,6661,6661,6661,6661,6661,6661,6661,6661,6661,6661,6661,6661,6661,6661,6661,6661,6661,6661,6661,6661,6661,6661,6661,6661,6661,6661,6661,6661,6661,6661,6661,6661,6661,6646,6661,6661,6661,6661,6661,6661,6661,6661,6661,
6661,6661,6661,6661,6661,6621,6661,6661,6661,6661,6661,6661,6661,6661,6661,6661,6661,6661,6661,6661,6661,6661,6661,6661,6661,6661,6661,6661,6661,6661,6661,6661,6661,6661,6661,6661,6661,6661,6661,6661,6661,6661,6661,6661,6661,6661,6661,6661,6661,6661,6661,6661,6661,6661,6621,6661,6661,6661,6661,6661,6661,6661,6661,6661,
6661,6661,6661,6661,6661,6621,6621,6661,6661,6661,6661,6661,6661,6661,6661,6661,6661,6661,6661,6661,6661,6661,6661,6661,6661,6661,6661,6661,6661,6661,6661,6661,6661,6661,6661,6661,6661,6661,6661,6661,6661,6661,6661,6661,6661,6661,6661,6661,6661,6661,6661,6661,6661,6661,6621,6661,6661,6664,6661,6661,6661,6661,6661,6661,
6661,6661,6661,6661,6664,6661,6621,6661,6661,6661,6661,6661,6661,6661,6661,6661,6661,6661,6661,6661,6661,6661,6661,6661,6661,6661,6661,6661,6661,6661,6661,6661,6661,6661,6661,6661,6661,6661,6661,6661,6661,6661,6661,6661,6661,6661,6661,6661,6661,6661,6661,6661,6661,6661,6621,6661,6661,6661,6661,6661,6661,6661,6661,6661,
6661,6661,6661,6661,6664,6661,6621,6661,6661,6661,6661,6661,6661,6661,6661,6661,6661,6661,6661,6661,6661,6661,6661,6661,6661,6661,6661,6661,6661,6661,6661,6661,6661,6661,6661,6661,6661,6661,6661,6661,6661,6661,6661,6661,6661,6661,6661,6661,6661,6661,6661,6661,6661,6661,6621,6661,6661,6661,6661,6661,6661,6661,6661,6661,
6661,6661,6646,6661,6661,6661,6621,6621,6621,6621,6621,6661,6661,6661,6661,6661,6661,6661,6661,6661,6661,6661,6661,6661,6661,6661,6661,6661,6661,6661,6661,6661,6661,6661,6661,6661,6661,6661,6661,6661,6661,6661,6661,6661,6661,6661,6661,6661,6661,6661,6661,6661,6661,6661,6621,6661,6661,6661,6661,6661,6661,6661,6661,6661,
6661,6661,6664,6646,6661,6661,6661,6661,6664,6661,6661,6661,6661,6661,6661,6661,6661,6661,6661,6661,6661,6661,6661,6661,6661,6661,6661,6661,6661,6661,6661,6661,6661,6661,6661,6661,6661,6661,6661,6661,6661,6661,6661,6661,6661,6661,6661,6661,6661,6661,6661,6661,6661,6661,6621,6661,6661,6661,6661,6661,6661,6661,6661,6661,
6661,6661,6661,6646,6646,6661,6661,6661,6664,6664,6661,6661,6661,6661,6661,6661,6661,6661,6661,6661,6661,6621,6621,6661,6661,6661,6621,6621,6661,6661,6661,6621,6661,6661,6661,6661,6661,6661,6661,6661,6661,6661,6661,6661,6661,6661,6661,6661,6661,6661,6661,6661,6661,6621,6661,6646,6646,6646,6646,6646,6646,6646,6646,6646,
6661,6661,6661,6661,6646,6661,6661,6661,6661,6661,6621,6661,6661,6661,6661,6661,6661,6661,6664,6661,6661,6621,6661,6621,6661,6621,6621,6661,6661,6661,6621,6621,6621,6621,6621,6661,6621,6621,6661,6661,6661,6621,6621,6661,6661,6661,6661,6661,6661,6661,6661,6661,6621,6661,6661,6661,6661,6661,6661,6661,6661,6661,6661,6661,
6661,6661,6661,6661,6646,6646,6646,6661,6661,6661,6621,6621,6661,6661,6646,6661,6661,6646,6646,6664,6621,6621,6661,6661,6621,6621,6621,6621,6621,6621,6621,6621,6621,6621,6621,6661,6661,6621,6621,6621,6621,6661,6661,6661,6661,6661,6661,6661,6661,6661,6661,6661,6621,6661,6661,6661,6661,6661,6661,6661,6661,6661,6661,6661,
6661,6661,6661,6661,6661,6661,6646,6661,6661,6661,6661,6621,6621,6646,6646,6661,6661,6661,6621,6621,6621,6664,6664,6664,6661,6621,6621,6621,6621,6621,6661,6621,6661,6661,6661,6621,6621,6621,6621,6661,6661,6661,6661,6661,6661,6661,6661,6661,6646,6646,6646,6621,6661,6661,6661,6661,6661,6661,6661,6661,6661,6661,6661,6661,
6661,6661,6661,6661,6661,6661,6661,6661,6661,6661,6661,6661,6621,6621,6661,6661,6621,6621,6621,6661,6661,6646,6646,6661,6661,6661,6661,6621,6621,6621,6661,6661,6661,6621,6621,6621,6661,6661,6621,6661,6661,6661,6621,6621,6661,6661,6661,6661,6661,6661,6661,6621,6646,6646,6646,6661,6661,6661,6661,6661,6661,6661,6661,6661,
6661,6661,6661,6661,6661,6661,6661,6661,6661,6661,6661,6661,6661,6621,6661,6661,6661,6661,6661,6661,6661,6661,6646,6646,6646,6646,6646,6646,6621,6661,6621,6661,6661,6661,6661,6661,6661,6661,6661,6661,6661,6661,6661,6661,6621,6621,6661,6661,6661,6661,6661,6661,6661,6661,6661,6661,6661,6661,6661,6661,6661,6661,6661,6661,
6661,6661,6661,6661,6661,6661,6661,6661,6661,6661,6661,6661,6661,6661,6661,6661,6661,6661,6661,6661,6661,6661,6661,6661,6661,6661,6661,6661,6661,6661,6661,6661,6661,6661,6661,6661,6661,6661,6661,6661,6621,6621,6621,6661,6661,6661,6661,6661,6661,6661,6661,6661,6661,6661,6661,6661,6661,6661,6661,6661,6661,6661,6661,6661,
6661,6661,6661,6661,6661,6661,6661,6661,6661,6661,6661,6661,6661,6661,6661,6661,6661,6661,6661,6661,6661,6661,6661,6661,6661,6621,6661,6661,6661,6661,6661,6661,6661,6661,6661,6661,6661,6661,6661,6661,6661,6661,6661,6661,6661,6661,6661,6661,6661,6661,6661,6661,6661,6661,6661,6661,6661,6661,6661,6661,6661,6661,6661,6661,
6661,6661,6661,6661,6661,6661,6661,6661,6661,6661,6661,6661,6661,6661,6661,6661,6661,6661,6661,6661,6661,6661,6661,6661,6661,6661,6621,6621,6621,6661,6661,6661,6661,6661,6661,6661,6661,6661,6661,6661,6661,6661,6661,6661,6661,6661,6661,6661,6661,6661,6661,6661,6661,6661,6661,6661,6661,6661,6661,6661,6661,6661,6661,6661,
6661,6661,6661,6661,6661,6661,6661,6661,6661,6661,6661,6661,6661,6661,6661,6661,6661,6661,6661,6661,6661,6661,6661,6661,6661,6661,6661,6661,6661,6621,6621,6661,6661,6661,6661,6661,6661,6661,6661,6661,6661,6661,6661,6661,6661,6661,6661,6661,6661,6661,6661,6661,6661,6661,6661,6661,6661,6661,6661,6661,6661,6661,6661,6661,
6661,6661,6661,6661,6661,6661,6661,6661,6661,6661,6661,6661,6661,6661,6661,6661,6661,6661,6661,6661,6661,6661,6661,6661,6661,6661,6661,6661,6661,6661,6661,6621,6621,6621,6621,6621,6661,6661,6661,6661,6661,6661,6661,6661,6661,6661,6661,6661,6661,6661,6661,6661,6661,6661,6661,6661,6661,6661,6661,6661,6661,6661,6661,6661,
6661,6661,6661,6661,6661,6661,6661,6661,6661,6661,6661,6661,6661,6661,6661,6661,6661,6661,6661,6661,6661,6661,6661,6661,6661,6661,6661,6661,6661,6661,6661,6661,6661,6661,6661,6661,6661,6661,6661,6661,6661,6661,6661,6661,6661,6661,6661,6661,6661,6661,6661,6661,6661,6661,6661,6661,6661,6661,6661,6661,6661,6661,6661,6661,
6661,6661,6661,6661,6661,6661,6661,6661,6661,6661,6661,6661,6661,6661,6661,6661,6661,6661,6661,6661,6661,6661,6661,6661,6661,6661,6661,6661,6661,6661,6661,6661,6661,6661,6661,6661,6661,6661,6661,6661,6661,6661,6661,6661,6661,6661,6661,6661,6661,6661,6661,6661,6661,6661,6661,6661,6661,6661,6661,6661,6661,6661,6661,6661
</data>
 </layer>
 <layer id="1" name="Tile Layer 1" width="64" height="64" locked="1">
  <data encoding="csv">
0,0,0,0,0,0,0,0,0,0,0,0,0,0,0,0,0,0,0,0,0,0,0,0,0,0,0,0,0,0,0,0,0,0,0,0,0,0,0,0,0,0,0,0,0,0,0,0,0,0,0,0,0,0,0,0,0,0,0,0,0,0,0,0,
0,0,0,0,0,0,0,0,0,0,0,0,0,0,0,0,0,0,0,0,0,0,0,0,0,0,0,0,0,0,0,0,0,0,0,0,0,0,0,0,0,0,0,0,0,0,0,0,0,0,0,0,0,0,0,0,0,0,0,0,0,0,0,0,
0,0,0,0,0,0,0,0,0,0,0,0,0,0,0,0,0,0,0,0,0,0,0,0,0,0,0,0,0,0,0,0,0,0,0,0,0,0,0,0,0,0,0,0,0,0,0,0,0,0,0,0,0,0,0,0,0,0,0,0,0,0,0,0,
0,0,0,0,0,0,0,0,0,0,0,0,0,0,0,0,0,0,0,0,0,0,0,0,0,0,0,0,0,0,0,0,0,0,0,0,0,0,0,0,0,0,0,0,0,0,0,0,0,0,0,0,0,0,0,0,0,0,0,0,0,0,0,0,
0,0,0,0,0,0,0,0,0,0,0,0,0,0,0,0,0,0,0,0,0,0,0,0,0,0,0,0,0,0,0,0,0,0,0,0,0,0,0,0,0,0,0,0,0,0,0,0,0,0,0,0,0,0,0,0,0,0,0,0,0,0,0,0,
0,0,0,0,0,0,0,0,0,0,0,0,0,0,0,0,0,0,0,0,0,0,0,0,0,0,0,0,0,0,0,0,0,0,0,0,0,0,0,0,0,0,0,0,0,0,0,0,0,0,0,0,0,0,0,0,0,0,0,0,0,0,0,0,
0,0,0,0,0,0,0,0,0,0,0,0,0,0,0,0,0,0,0,0,0,0,0,0,0,0,0,0,0,0,0,0,0,0,0,0,0,0,0,0,0,0,0,0,0,0,0,0,0,0,0,0,0,0,0,0,0,0,0,0,0,0,0,0,
0,0,0,0,0,0,0,0,0,0,0,0,0,0,0,0,0,0,0,0,0,0,0,0,0,0,0,0,0,0,0,0,0,0,0,0,0,0,0,0,0,0,0,0,0,0,0,0,0,0,0,0,0,0,0,0,0,0,0,0,0,0,0,0,
0,0,0,0,0,0,0,0,0,0,0,0,0,0,0,0,0,0,0,0,0,0,0,0,0,0,0,0,0,0,0,0,0,0,0,0,0,0,0,0,0,0,0,0,0,0,0,0,0,0,0,0,0,0,0,0,0,0,0,0,0,0,0,0,
0,0,0,0,0,0,0,0,0,0,0,0,0,0,0,0,0,0,0,0,0,0,0,0,0,0,0,0,0,0,0,0,0,0,0,0,0,0,0,0,0,0,0,0,0,0,0,0,0,0,0,0,0,0,0,0,0,0,0,0,0,0,0,0,
0,0,0,0,0,0,0,0,0,0,6340,6340,63,6437,63,63,6340,63,74,74,74,74,74,74,74,74,74,74,74,74,74,74,74,74,74,74,74,6364,74,74,6340,63,63,63,63,63,63,63,63,6436,0,0,0,0,0,0,0,0,0,0,0,0,0,0,
0,0,0,0,0,0,0,0,0,0,63,63,63,6437,6340,63,6340,63,74,74,6436,74,74,74,74,74,6436,74,6364,6364,74,74,74,74,6364,74,74,6364,74,74,63,63,63,63,63,63,63,63,63,6340,0,0,0,0,0,0,0,0,0,0,0,0,0,0,
0,0,0,0,0,0,0,0,0,0,63,63,63,63,63,63,6437,63,74,6436,6436,6436,74,74,74,74,74,74,74,6364,74,74,6364,6436,74,74,6364,74,6436,74,63,63,63,63,63,63,63,63,63,63,0,0,0,0,0,0,0,0,0,0,0,0,0,0,
0,0,0,0,0,0,0,0,0,0,63,63,63,63,63,63,63,6340,74,74,74,74,74,74,74,6364,6364,74,74,74,6364,6364,74,74,74,74,74,74,74,74,6340,63,6340,63,63,6340,63,6340,6340,63,0,0,0,0,0,0,0,0,0,0,0,0,0,0,
0,0,0,0,0,0,0,0,0,0,63,63,6340,63,63,6340,63,63,74,74,74,74,74,74,74,74,74,74,74,74,74,6364,6364,74,74,74,74,74,74,74,63,6436,63,6340,63,6436,63,63,63,6436,0,0,0,0,0,0,0,0,0,0,0,0,0,0,
0,0,0,0,0,0,0,0,0,0,6437,6340,6340,63,63,6437,63,63,74,74,74,74,74,74,74,74,74,74,74,74,74,6364,6364,6364,74,74,74,74,74,74,63,63,63,63,63,63,63,63,63,6340,0,0,0,0,0,0,0,0,0,0,0,0,0,0,
0,0,0,0,0,0,0,0,0,0,63,63,63,6437,6340,6340,63,63,74,74,74,6364,6364,6364,74,74,6364,6364,74,74,74,74,74,6364,6364,74,74,74,74,74,63,63,63,63,63,63,63,63,63,63,0,0,0,0,0,0,0,0,0,0,0,0,0,0,
0,0,0,0,0,0,0,0,0,0,63,63,63,63,63,63,63,6437,74,74,74,74,74,74,6436,6364,6364,74,6364,74,6364,6436,74,6436,6436,6364,74,74,74,74,63,6340,63,63,63,63,63,63,63,63,0,0,0,0,0,0,0,0,0,0,0,0,0,0,
0,0,0,0,0,0,0,0,0,0,63,63,63,63,63,63,6340,6437,6364,6364,186,186,6364,6364,186,186,6364,186,6364,186,6436,6436,186,186,6364,186,6364,186,186,186,186,6340,6340,6340,6340,186,6340,186,6436,6436,0,0,0,0,0,0,0,0,0,0,0,0,0,0,
0,0,0,0,0,0,0,0,0,0,63,63,63,63,63,63,63,63,186,186,186,186,186,186,186,186,186,186,186,186,186,186,2684360564,186,186,186,186,186,186,186,186,186,186,6436,186,186,186,6436,186,186,0,0,0,0,0,0,0,0,0,0,0,0,0,0,
0,0,0,0,0,0,0,0,0,0,6437,63,63,6340,63,6340,6340,6437,186,186,186,186,186,2684360564,186,186,186,186,186,186,186,186,186,186,6051,186,186,186,186,186,186,186,186,186,6436,186,186,186,6243,186,0,0,0,0,0,0,0,0,0,0,0,0,0,0,
0,0,0,0,0,0,0,0,0,0,63,6340,6437,6340,63,63,63,6437,186,186,186,186,186,186,186,186,2684360564,186,186,186,2684360564,186,6051,186,6243,186,6051,6051,186,186,186,186,186,186,186,186,186,186,186,186,186,186,0,0,0,0,2147486440,2147486439,2147486438,0,0,0,0,0,
0,0,0,0,0,0,0,0,6082,0,186,6437,186,186,186,186,6437,186,186,186,186,186,186,2684360564,2684360564,186,186,2684360564,2684360564,186,186,186,6051,186,186,186,186,6051,186,186,186,186,186,186,186,6051,186,186,186,186,186,0,0,0,0,0,2147486472,2147486471,2147486470,0,0,0,0,0,
0,0,0,0,0,0,0,0,6082,186,6082,186,186,186,186,2684360564,186,186,2684360564,186,186,186,186,186,186,186,186,186,186,186,186,186,186,186,186,186,186,186,186,186,186,186,186,6051,186,186,186,186,186,5980,186,6082,0,0,0,0,2147486504,2147486503,2147486502,0,0,0,0,0,
0,0,0,0,0,0,0,0,6082,6082,186,186,186,186,186,186,186,186,186,186,186,186,186,186,186,186,186,186,6051,186,186,6051,186,186,186,186,186,186,2684360564,186,186,186,2684360564,2684360564,186,6243,6051,6243,186,5980,186,0,0,0,0,0,0,0,0,0,0,0,0,0,
0,0,0,0,0,0,0,0,0,6082,186,186,186,186,6051,186,186,186,186,186,186,186,186,186,186,186,186,6051,186,186,186,186,6243,186,186,186,2684360564,2684360564,186,6243,186,186,186,2684360564,2684360564,186,186,6243,186,186,186,6082,0,0,0,0,0,0,0,0,0,0,0,0,
0,0,0,0,0,0,0,0,5980,186,186,6051,6051,186,186,186,6051,186,186,186,6243,186,186,186,186,186,186,186,186,186,186,186,186,186,186,186,186,186,186,186,186,186,186,186,186,186,186,6051,186,186,186,5980,0,0,0,0,0,0,0,0,0,0,0,0,
0,0,0,0,0,0,0,0,186,186,186,186,186,186,186,186,186,186,186,186,6004,186,186,6051,6243,2684360564,186,186,186,186,186,186,186,186,186,186,186,186,186,186,186,186,186,186,186,186,186,186,186,186,186,6082,0,0,0,0,0,0,0,0,0,0,0,0,
0,0,0,0,0,0,0,0,186,6082,186,186,6243,6051,186,186,186,186,186,186,186,186,186,186,186,2684360564,186,186,189,189,189,189,186,186,186,6051,186,186,2684360564,186,6051,186,186,186,186,186,186,186,6051,186,186,6082,0,0,0,0,0,0,0,0,0,0,0,0,
0,0,0,0,0,0,0,0,0,5980,186,186,186,6051,186,186,186,186,6051,186,186,186,186,186,186,186,186,186,189,91,91,189,2684360564,186,186,186,186,186,186,186,186,186,186,186,186,186,186,186,186,186,5980,6082,5980,0,0,0,0,0,0,0,0,0,0,0,
0,0,0,0,0,0,0,0,6082,6082,186,6051,186,186,186,186,186,186,186,186,186,186,186,186,186,186,186,186,189,91,91,189,6051,186,2684360564,186,186,186,186,186,6051,186,186,186,186,186,186,186,186,186,0,0,0,0,0,0,0,0,0,0,0,0,0,0,
0,0,0,0,0,0,0,0,186,186,186,186,186,186,186,186,186,186,186,186,186,186,186,186,186,2684360564,186,186,189,189,189,189,6051,186,186,186,186,186,186,186,186,186,186,186,186,186,6243,186,186,186,5980,0,0,0,0,0,0,0,0,0,0,0,0,0,
0,2790,2791,2792,0,0,0,0,186,186,186,186,186,186,186,186,186,186,186,186,6051,186,186,186,186,186,186,6243,186,186,186,186,186,186,186,2684360564,186,186,186,186,186,186,6051,186,186,186,6051,6051,186,186,5980,0,0,0,0,0,0,0,0,0,0,0,0,0,
0,2822,2823,2824,0,0,0,0,0,186,186,186,186,6051,186,186,2684360564,2684360564,2684360564,186,186,186,186,186,186,186,186,186,186,186,186,186,186,186,186,186,186,186,186,186,186,186,186,186,186,186,186,186,186,186,6082,0,0,0,0,0,0,0,0,0,0,0,0,0,
0,2854,2855,2856,0,0,0,0,0,186,186,6051,186,186,186,186,186,186,186,186,6051,6051,186,186,186,2684360564,186,186,186,186,186,186,186,186,186,186,186,186,186,186,6051,186,186,186,186,186,186,6243,186,186,0,186,0,0,0,0,0,0,0,0,0,0,0,0,
0,0,0,0,0,0,0,0,0,6082,186,186,186,186,186,186,186,186,186,186,186,186,186,186,186,2684360564,186,186,6051,186,186,186,2684360564,186,186,186,186,186,186,2684360564,2684360564,186,186,186,186,186,186,186,186,186,186,186,0,0,0,0,0,0,0,0,0,0,0,0,
0,0,0,0,0,0,0,6082,0,186,186,186,186,6051,186,186,186,186,186,186,186,186,186,186,186,186,186,186,186,186,186,186,2684360564,186,186,2684360564,2684360564,186,186,186,186,186,186,186,6051,6051,6051,6051,6051,186,186,186,0,0,0,0,0,0,0,0,0,0,0,0,
0,0,0,0,0,0,0,0,0,0,186,6051,186,186,186,186,2684360564,186,186,186,6051,6051,186,2684360564,186,186,186,186,2684360564,186,186,186,186,186,186,186,186,186,186,186,186,186,186,6051,6243,6243,186,186,186,186,186,186,0,0,0,0,2147486440,2147486439,2147486438,0,0,0,0,0,
0,0,0,0,0,0,0,0,0,186,186,186,186,186,6051,186,186,186,186,186,6051,6051,186,186,6243,186,186,186,186,186,186,186,186,186,186,186,186,186,186,186,186,186,186,186,186,186,186,186,186,186,5980,0,0,0,0,0,2147486472,2147486471,2147486470,0,0,0,0,0,
0,0,0,0,0,0,0,0,0,6082,6082,6051,186,186,6243,186,186,186,186,186,186,186,2684360564,186,186,186,186,186,186,186,186,186,186,186,186,186,6051,6051,186,186,186,186,186,186,186,186,6437,186,6437,186,5980,5980,0,0,0,0,2147486504,2147486503,2147486502,0,0,0,0,0,
0,0,0,0,0,0,0,0,5980,5980,186,6051,186,186,186,6051,186,186,186,186,186,186,186,186,186,6051,186,186,186,186,2684360564,186,186,186,186,186,186,186,186,186,63,63,63,63,63,6340,6340,6437,6437,6340,0,0,0,0,0,0,0,0,0,0,0,0,0,0,
0,0,0,2790,2791,2792,0,0,0,0,5980,186,186,186,186,186,186,186,2684360564,186,186,186,186,186,186,186,186,186,186,186,2684360564,186,186,186,186,186,6051,186,186,186,63,6340,63,63,63,63,63,6437,6340,6340,0,0,0,0,2147486440,2147486439,2147486438,0,0,0,0,0,0,0,
0,0,0,2822,2823,2824,0,0,6082,6082,5980,186,186,186,186,6051,186,186,2684360564,186,186,186,186,186,186,186,186,186,6243,186,186,186,186,186,186,186,6243,186,186,186,63,63,63,63,63,63,63,63,63,63,0,0,0,0,2147486472,2147486471,2147486470,0,0,0,0,0,0,0,
0,0,0,2854,2855,2856,0,0,0,0,6082,186,186,186,6051,6051,6051,186,186,186,186,186,186,186,6243,186,2684360564,186,6051,186,186,186,186,186,186,6051,186,186,186,186,63,63,63,63,63,63,63,63,63,63,0,0,0,0,2147486504,2147486503,2147486502,0,0,0,0,0,0,0,
0,0,0,0,0,0,0,0,0,0,6082,186,6051,6051,186,186,186,186,186,186,186,186,6051,6051,186,2684360564,2684360564,186,6051,186,6051,186,186,186,2684360564,6051,186,186,186,6437,63,6437,63,63,6437,63,63,6437,63,63,0,0,0,0,0,0,0,0,0,0,0,0,0,0,
0,0,0,0,0,0,0,0,0,6082,6082,186,186,6051,6051,186,186,186,6243,186,186,186,186,186,186,186,186,186,186,186,186,186,186,186,186,186,186,186,186,186,63,6437,6437,6340,63,63,63,63,6437,63,0,0,0,0,0,0,0,0,0,0,0,0,0,0,
0,0,0,0,0,0,0,0,0,6082,6082,6051,6051,6051,186,186,186,186,186,186,186,186,186,186,186,6243,186,186,186,186,186,186,186,186,6243,186,186,186,186,186,63,6340,63,63,6437,63,63,63,63,63,0,0,0,0,0,0,0,0,0,0,0,0,0,0,
0,0,0,0,0,0,0,0,0,0,186,186,186,186,186,186,186,186,6051,186,186,186,186,186,186,186,186,186,186,186,186,186,186,186,186,186,186,186,186,186,63,6437,6437,6340,63,63,63,63,63,63,0,0,0,0,0,0,0,0,0,0,0,0,0,0,
0,0,0,0,0,0,0,0,0,0,186,186,186,186,186,186,186,186,186,186,186,186,186,186,186,186,186,186,186,186,186,186,186,186,186,186,186,186,186,186,6437,6340,63,63,6340,63,63,63,63,63,0,0,0,0,0,0,0,0,0,0,0,0,0,0,
0,0,0,0,0,0,0,0,0,0,186,5980,186,5980,186,186,186,186,186,186,186,186,6082,186,186,186,6082,186,186,186,186,186,6082,186,186,186,6082,186,186,186,63,6340,63,63,63,63,6437,63,63,63,0,0,0,0,0,0,0,0,0,0,0,0,0,0,
0,0,0,0,0,0,0,0,0,0,0,0,6082,6082,6082,6082,6082,0,6082,6082,6082,186,186,186,0,186,186,186,186,186,0,186,186,0,186,186,0,186,0,0,0,0,0,0,0,0,0,0,0,0,0,0,0,0,0,0,0,0,0,0,0,0,0,0,
0,0,0,0,0,0,0,0,0,0,0,0,0,0,0,6082,6082,0,0,0,0,186,186,0,186,0,0,6082,6082,6082,0,0,186,186,186,186,0,0,0,0,0,0,0,0,0,0,0,0,0,0,0,0,0,0,0,0,0,0,0,0,0,0,0,0,
0,0,0,0,0,0,0,0,0,0,0,0,0,0,0,0,0,0,0,0,0,0,0,0,0,0,0,0,0,0,0,0,0,0,0,0,0,0,0,0,0,0,0,0,0,0,0,0,0,0,0,0,0,0,0,0,0,0,0,0,0,0,0,0,
0,0,0,0,0,0,0,0,0,0,0,0,0,0,0,0,0,0,0,0,0,0,0,0,0,0,0,0,0,0,0,0,0,0,0,0,0,0,0,0,0,0,0,0,0,0,0,0,0,0,0,0,0,0,0,0,0,0,0,0,0,0,0,0,
0,0,0,0,0,0,0,0,0,0,0,0,0,0,0,0,0,0,0,0,0,0,0,0,0,0,0,0,0,0,0,0,0,0,0,0,0,0,0,0,0,0,0,0,0,0,0,0,0,0,0,0,0,0,0,0,0,0,0,0,0,0,0,0,
0,0,0,0,0,0,0,0,0,0,0,0,0,0,0,0,0,0,0,0,0,0,0,0,0,0,0,0,0,0,0,0,0,0,0,0,0,0,0,0,0,0,0,0,0,0,0,0,0,0,0,0,0,0,0,0,0,0,0,0,0,0,0,0,
0,0,0,0,0,0,0,0,0,0,0,0,0,0,0,0,0,0,0,0,0,0,0,0,0,0,0,0,0,0,0,0,0,0,0,0,0,0,0,0,0,0,0,0,0,0,0,0,0,0,0,0,0,0,0,0,0,0,0,0,0,0,0,0,
193,193,193,193,193,193,193,193,193,193,193,193,193,193,193,193,193,193,193,193,193,193,193,193,193,193,193,193,193,193,193,193,193,193,193,193,193,193,193,193,193,193,193,193,193,193,193,193,193,193,193,193,193,193,193,193,193,193,193,193,193,193,193,193,
193,193,193,193,193,193,193,193,193,193,193,193,193,193,193,193,193,193,193,193,193,193,193,193,193,193,193,193,193,193,193,193,193,193,193,193,193,193,193,193,193,193,193,193,193,193,193,193,193,193,193,193,193,193,193,193,193,193,193,193,193,193,193,193,
193,193,193,26,26,26,26,193,193,193,193,193,26,26,26,26,193,193,193,193,193,26,26,26,26,193,193,193,193,26,26,26,26,193,193,193,193,193,26,26,26,26,193,193,193,193,26,26,26,26,193,193,193,26,26,26,26,193,193,193,193,26,26,26,
193,193,193,193,193,193,193,193,193,193,193,193,193,193,193,193,193,193,193,193,193,193,193,193,193,193,193,193,193,193,193,193,193,193,193,193,193,193,193,193,193,193,193,193,193,193,193,193,193,193,193,193,193,193,193,193,193,193,193,193,193,193,193,193,
193,193,193,193,193,193,193,193,193,193,193,193,193,193,193,193,193,193,193,193,193,193,193,193,193,193,193,193,193,193,193,193,193,193,193,193,193,193,193,193,193,193,193,193,193,193,193,193,193,193,193,193,193,193,193,193,193,193,193,193,193,193,193,193,
0,0,0,0,0,0,0,0,0,0,0,0,0,0,0,0,0,0,0,0,0,0,0,0,0,0,0,0,0,0,0,0,0,0,0,0,0,0,0,0,0,0,0,0,0,0,0,0,0,0,0,0,0,0,0,0,0,0,0,0,0,0,0,0,
0,0,0,0,0,0,0,0,0,0,0,0,0,0,0,0,0,0,0,0,0,0,0,0,0,0,0,0,0,0,0,0,0,0,0,0,0,0,0,0,0,0,0,0,0,0,0,0,0,0,0,0,0,0,0,0,0,0,0,0,0,0,0,0
</data>
 </layer>
 <layer id="11" name="things above c2" width="64" height="64">
  <data encoding="csv">
0,0,0,0,0,0,0,0,0,0,0,0,0,0,0,0,0,0,0,0,0,0,0,0,0,0,0,0,0,0,0,0,0,0,0,0,0,0,0,0,0,0,0,0,0,0,0,0,0,0,0,0,0,0,0,0,0,0,0,0,0,0,0,0,
0,0,0,0,0,0,0,0,0,0,0,0,0,0,0,0,0,0,0,0,0,0,0,0,0,0,0,0,0,0,0,0,0,0,0,0,0,0,0,0,0,0,0,0,0,0,0,0,0,0,0,0,0,0,0,0,0,0,0,0,0,0,0,0,
0,0,0,0,0,0,0,0,0,0,0,0,0,0,0,0,0,0,0,0,0,0,0,0,0,0,0,0,0,0,0,0,0,0,0,0,0,0,0,0,0,0,0,0,0,0,0,0,0,0,0,0,0,0,0,0,0,0,0,0,0,0,0,0,
0,0,0,0,0,0,0,0,0,0,0,0,0,0,0,0,0,0,0,0,0,0,0,0,0,0,0,0,0,0,0,0,0,0,0,0,0,0,0,0,0,0,0,0,0,0,0,0,0,0,0,0,0,0,0,0,0,0,0,0,0,0,0,0,
0,0,0,0,0,0,0,0,0,0,0,0,0,0,0,0,0,0,0,0,0,0,0,0,0,0,0,0,0,0,0,0,0,0,0,0,0,0,0,0,0,0,0,0,0,0,0,0,0,0,0,0,0,0,0,0,0,0,0,0,0,0,0,0,
0,0,0,0,0,0,0,0,0,0,0,0,0,0,0,0,0,0,0,0,0,0,0,0,0,0,0,0,0,0,0,0,0,0,0,0,0,0,0,0,0,0,0,0,0,0,0,0,0,0,0,0,0,0,0,0,0,0,0,0,0,0,0,0,
0,0,0,0,0,0,0,0,0,0,0,0,0,0,0,0,0,0,0,0,0,0,0,0,0,0,0,0,0,0,0,0,0,0,0,0,0,0,0,0,0,0,0,0,0,0,0,0,0,0,0,0,0,0,0,0,0,0,0,0,0,0,0,0,
0,0,0,0,0,0,0,0,0,0,0,0,0,0,0,0,0,0,0,0,0,0,0,0,0,0,0,0,0,0,0,0,0,0,0,0,0,0,0,0,0,0,0,0,0,0,0,0,0,0,0,0,0,0,0,0,0,0,0,0,0,0,0,0,
0,0,0,0,0,0,0,0,0,0,0,0,0,0,0,0,0,0,0,0,0,0,0,2809,2810,0,0,0,0,0,0,0,0,0,0,0,0,0,0,0,0,5433,5434,5435,5436,5433,5434,5435,5436,0,0,0,0,0,0,0,0,0,0,0,0,0,0,0,
0,0,0,0,0,0,0,0,0,0,0,0,0,0,0,0,0,0,0,0,0,0,0,2841,2842,0,0,0,0,0,0,0,0,0,0,0,0,0,0,0,0,5465,5466,5467,5468,5465,5466,5467,5468,0,0,0,0,0,0,0,0,0,0,0,0,0,0,0,
0,0,0,0,0,0,0,0,0,0,0,0,0,0,0,0,0,0,0,0,0,0,0,2873,2874,0,0,0,0,0,0,0,0,0,0,0,0,0,0,0,0,5497,5498,5499,5500,5497,5498,5499,5500,0,0,0,0,0,0,0,0,0,0,0,0,0,0,0,
0,0,0,0,0,0,0,0,0,0,0,1422,1423,1424,1422,1423,1424,0,0,0,0,0,0,2905,2906,0,0,0,455,456,0,0,0,0,0,0,0,0,0,0,0,5529,5530,5531,5532,5529,5530,5531,5532,0,0,0,0,0,0,0,0,0,0,0,0,0,0,0,
0,0,0,0,0,0,0,0,0,0,0,1454,1455,1456,1454,1455,1456,0,0,0,0,0,0,0,0,0,0,0,487,488,0,0,0,0,0,0,0,0,0,0,0,5561,5562,5563,5564,5561,5562,5563,5564,0,0,0,0,0,0,0,0,0,0,0,0,0,0,0,
0,0,0,0,0,0,0,0,0,0,0,1486,1487,1488,1486,1487,1488,0,0,2347,2348,2347,2348,2347,2348,2832,2833,2834,519,520,2531,2532,2533,2534,2535,2536,2537,2538,0,0,0,0,0,0,0,0,0,0,0,0,0,0,0,0,0,0,0,0,0,0,0,0,0,0,
0,0,0,0,0,0,0,0,0,0,0,1518,1519,1520,1518,1519,1520,0,0,2379,2380,2379,2380,2379,2380,2864,2865,2866,551,552,2563,2564,2565,2566,2567,2568,2569,2570,0,0,0,0,0,0,0,0,0,0,0,0,0,0,0,0,0,0,0,0,0,0,0,0,0,0,
0,0,0,0,0,0,0,0,0,0,0,0,0,0,0,0,0,0,0,2411,2412,2411,2412,2411,2412,2896,2897,2898,583,584,2595,2596,2597,2598,2599,2600,2601,2602,0,0,0,2571,2572,2573,2574,2571,2572,2573,2574,0,0,0,0,0,0,0,0,0,0,0,0,0,0,0,
0,0,0,0,0,0,0,0,0,0,0,0,0,0,0,0,0,0,0,2443,2444,2443,2444,2443,2444,0,0,0,0,0,0,0,0,0,0,0,0,0,0,0,0,2603,2604,2605,2606,2603,2604,2605,2606,0,0,0,0,0,0,0,0,0,0,0,0,0,0,0,
0,0,0,0,0,0,0,0,0,0,0,775,776,0,0,0,0,0,0,0,0,0,0,0,0,0,0,0,0,0,0,0,0,0,0,0,0,0,0,0,0,2635,2636,2637,2638,2635,2636,2637,2638,0,0,0,0,0,0,0,0,0,0,0,0,0,0,0,
0,0,0,0,0,0,0,0,0,0,0,807,808,2217,2218,2217,2218,0,0,0,3129,3130,0,0,0,0,0,0,0,0,0,0,0,0,0,0,0,0,3129,3130,0,0,0,0,0,0,0,0,0,0,0,0,0,0,0,0,0,0,0,0,0,0,0,0,
0,0,0,0,0,0,0,0,0,0,0,839,840,2249,2250,2249,2250,0,0,0,3161,3162,0,0,0,0,0,0,0,0,0,0,0,0,0,0,0,0,3161,3162,0,0,0,0,0,0,0,0,0,0,0,0,0,0,0,0,0,0,0,0,0,0,0,0,
0,0,0,0,0,0,0,0,0,0,0,0,0,0,0,0,0,0,0,0,3193,3194,0,0,0,0,0,0,0,2665,2666,0,0,0,0,0,0,0,3193,3194,0,0,0,0,0,0,0,0,0,0,0,0,0,0,0,0,0,0,0,0,0,0,0,0,
0,0,0,0,0,0,0,0,0,0,0,0,0,0,0,0,0,0,0,0,0,0,0,0,0,0,0,0,0,2697,2698,0,0,0,0,0,0,0,0,0,0,0,0,0,0,0,0,0,0,0,0,0,0,0,0,0,2147486440,2147486439,2147486438,2147486437,0,0,0,0,
0,0,0,0,0,0,0,0,0,0,0,0,0,0,0,0,0,0,0,0,0,0,0,0,0,0,0,0,0,2729,2730,0,0,0,0,0,0,0,0,0,0,0,0,0,0,0,0,0,0,0,0,0,0,0,0,0,2147486472,2147486471,2147486470,2147486469,0,0,0,0,
0,0,0,0,0,0,0,0,0,0,0,0,0,0,0,0,0,2665,2666,0,0,0,2789,2790,2791,2792,0,0,0,0,0,0,0,0,2667,2668,2669,2670,0,0,0,2665,2666,0,0,0,0,0,0,0,0,0,0,0,0,0,2147486504,2147486503,2147486502,2147486501,0,0,0,0,
0,0,0,0,0,0,0,0,0,0,0,0,0,0,0,0,0,2697,2698,0,0,0,2821,2822,2823,2824,0,0,0,0,0,0,0,0,2699,2700,2701,2702,0,0,0,2697,2698,0,0,0,0,0,0,0,0,0,0,0,0,0,0,0,0,0,0,0,0,0,
0,0,0,0,0,0,0,0,0,0,0,0,0,0,0,0,0,2729,2730,0,0,0,2853,2854,2855,2856,0,0,0,0,0,0,0,0,2731,2732,2733,2734,0,0,0,2729,2730,0,0,0,0,0,0,0,0,0,0,0,0,0,0,0,0,0,0,0,0,0,
0,0,0,0,0,0,0,0,0,0,0,0,0,0,0,0,0,0,0,0,0,0,0,0,0,0,0,0,0,0,0,0,0,0,0,0,0,0,0,0,0,0,0,0,0,0,0,0,0,0,0,0,0,0,0,0,0,0,0,0,0,0,0,0,
0,0,0,0,0,0,0,0,0,0,0,0,0,0,0,0,0,0,0,0,0,0,0,0,0,0,0,0,0,3129,3130,0,0,0,0,0,0,0,0,0,0,0,0,0,0,0,0,0,0,0,0,0,0,0,0,0,0,0,0,0,0,0,0,0,
0,0,0,0,0,0,0,0,0,0,0,0,0,0,2665,2666,0,0,0,2789,2790,2791,2792,0,0,0,0,0,0,3161,3162,0,0,0,0,0,0,2667,2668,2669,2670,0,0,2665,2666,0,0,0,0,0,0,0,0,0,0,0,0,0,0,0,0,0,0,0,
0,0,0,0,0,0,0,0,0,0,0,0,0,0,2697,2698,0,0,0,2821,2822,2823,2824,0,0,0,0,0,0,3193,3194,0,0,0,0,0,0,2699,2700,2701,2702,0,0,2697,2698,0,0,0,0,0,0,0,0,0,0,0,0,0,0,0,0,0,0,0,
0,0,0,0,0,0,0,0,0,0,0,0,0,0,2729,2730,0,0,0,2853,2854,2855,2856,0,0,0,0,0,0,0,0,0,0,0,0,0,0,2731,2732,2733,2734,0,0,2729,2730,0,0,0,0,0,0,0,0,0,0,0,0,0,0,0,0,0,0,0,
0,0,0,0,0,0,0,0,0,0,0,0,0,0,0,0,0,0,0,0,0,0,0,0,0,0,0,0,0,0,0,0,0,0,0,0,0,0,0,0,0,0,0,0,0,0,0,0,0,0,0,0,0,0,0,0,0,0,0,0,0,0,0,0,
0,0,0,0,0,0,0,0,0,0,0,0,0,0,0,0,0,0,0,0,0,0,0,0,0,0,0,0,0,0,0,0,0,0,0,0,0,0,0,0,0,0,0,0,0,0,0,0,0,0,0,0,0,0,0,0,0,0,0,0,0,0,0,0,
0,0,0,0,0,0,0,0,0,0,0,0,0,0,0,0,0,0,0,0,0,0,0,0,0,0,0,0,0,0,0,0,0,0,0,0,0,0,0,0,0,0,0,0,0,0,0,0,0,0,0,0,0,0,0,0,0,0,0,0,0,0,0,0,
0,0,0,0,0,0,0,0,0,0,0,0,0,0,0,0,0,0,0,0,0,0,2789,2790,2791,2792,0,0,0,0,0,0,0,0,0,2667,2668,2669,2670,0,0,0,0,0,0,0,0,0,0,0,0,0,0,0,0,0,0,0,0,0,0,0,0,0,
0,0,0,0,0,0,0,0,0,0,0,0,0,0,0,0,0,2665,2666,0,0,0,2821,2822,2823,2824,0,0,0,0,0,0,0,0,0,2699,2700,2701,2702,0,0,2665,2666,0,0,0,0,0,0,0,0,0,0,0,0,0,0,0,0,0,0,0,0,0,
0,0,0,0,0,0,0,0,0,0,0,0,0,0,0,0,0,2697,2698,0,0,0,2853,2854,2855,2856,0,0,0,0,0,0,0,0,0,2731,2732,2733,2734,0,0,2697,2698,0,0,0,0,0,0,0,0,0,0,0,0,0,0,0,0,0,0,0,0,0,
0,0,0,0,0,0,0,0,0,0,0,0,0,0,0,0,0,2729,2730,0,3129,3130,0,0,0,0,0,0,0,0,0,0,0,0,0,0,0,0,3129,3130,0,2729,2730,0,0,0,0,0,0,0,0,0,0,0,0,0,2147486440,0,0,0,0,0,0,0,
0,0,0,0,0,0,0,0,0,0,0,0,0,0,0,0,0,0,0,0,3161,3162,0,0,0,0,0,0,0,2665,2666,0,0,0,0,0,0,0,3161,3162,0,0,0,0,0,0,0,0,0,0,0,0,0,0,0,0,0,0,2147486470,0,0,0,0,0,
0,0,0,0,0,0,0,0,0,0,0,0,0,0,0,0,0,0,0,0,3193,3194,0,0,0,0,0,0,0,2697,2698,0,0,0,0,0,0,0,3193,3194,0,0,0,455,456,0,0,0,0,0,0,0,0,0,0,0,0,0,0,0,0,0,0,0,
0,0,0,0,0,0,0,0,0,0,0,0,0,0,0,0,0,0,0,0,0,0,0,0,0,0,0,0,0,2729,2730,0,0,0,0,0,0,0,0,0,0,0,0,487,488,0,0,0,0,0,0,0,0,0,0,0,0,0,0,0,0,0,0,0,
0,0,0,0,0,0,0,0,0,0,0,0,0,0,0,0,0,0,0,0,0,0,0,0,0,0,0,0,0,0,0,0,0,0,0,0,0,0,0,0,2832,2833,2834,519,520,0,0,0,0,0,0,0,0,0,2147486440,2147486439,0,0,0,0,0,0,0,0,
0,0,0,0,0,0,0,0,0,0,0,0,0,0,0,0,0,0,0,0,0,0,0,0,0,0,0,0,0,0,0,0,0,0,0,0,0,0,0,0,2864,2865,2866,551,552,0,2147486440,2147486439,2147486438,2147486437,0,0,0,0,2147486472,0,0,0,0,0,0,0,0,0,
0,0,0,0,0,0,0,0,0,0,0,0,0,0,0,0,0,0,0,0,0,0,0,0,0,0,0,0,0,0,0,0,0,0,0,0,0,0,0,0,2896,2897,2898,583,584,0,2147486472,2147486471,2147486470,2147486469,0,0,0,0,0,0,2147486502,2147486501,0,0,0,0,0,0,
0,0,0,0,0,0,0,0,0,0,0,0,0,0,0,0,0,0,0,0,0,0,0,0,0,0,0,0,0,0,0,0,0,0,0,0,0,0,0,0,0,0,0,0,0,0,2147486504,2147486503,2147486502,2147486501,0,0,0,0,0,0,0,0,0,0,0,0,0,0,
0,0,0,0,0,0,0,0,0,0,0,0,0,0,0,0,0,0,0,0,0,0,0,0,0,0,0,0,0,0,0,0,0,0,0,0,0,0,0,0,0,0,0,0,0,0,2147486440,2147486439,2147486438,2147486437,0,0,0,0,0,0,0,0,0,0,0,0,0,0,
0,0,0,0,0,0,0,0,0,0,0,0,0,0,0,0,0,0,0,0,0,0,0,0,0,0,0,0,0,0,0,0,0,0,0,0,0,0,0,0,0,0,0,0,0,0,2147486472,2147486471,2147486470,2147486469,0,0,0,0,0,0,0,0,0,0,0,0,0,0,
0,0,0,0,0,0,0,0,0,0,0,0,0,0,0,0,0,0,0,0,0,0,0,0,0,0,0,0,0,0,0,0,0,0,0,0,0,0,0,0,0,0,0,0,0,0,2147486504,2147486503,2147486502,2147486501,0,0,0,0,0,0,0,0,0,0,0,0,0,0,
0,0,0,0,0,0,0,0,0,0,0,0,0,0,0,0,0,0,0,0,0,0,0,0,0,0,0,0,0,0,0,0,0,0,0,0,0,0,0,0,0,0,0,0,0,0,0,0,0,0,0,0,0,0,0,0,0,0,0,0,0,0,0,0,
0,0,0,0,0,0,0,0,0,0,0,0,0,0,0,0,0,0,0,0,0,0,0,0,0,0,0,0,0,0,0,0,0,0,0,0,0,0,0,0,0,0,0,0,0,0,0,0,0,0,0,0,0,0,0,0,0,0,0,0,0,0,0,0,
0,0,0,0,0,0,0,0,0,0,0,0,0,0,0,0,0,0,0,0,0,0,0,0,0,0,0,0,0,0,0,0,0,0,0,0,0,0,0,0,0,0,0,0,0,0,0,0,0,0,0,0,0,0,0,0,0,0,0,0,0,0,0,0,
0,0,0,0,0,0,0,0,0,0,0,0,0,0,0,0,0,0,0,0,0,0,0,0,0,0,0,0,0,0,0,0,0,0,0,0,0,0,0,0,0,0,0,0,0,0,0,0,0,0,0,0,0,0,0,0,0,0,0,0,0,0,0,0,
0,0,0,0,0,0,0,0,0,0,0,0,0,0,0,0,0,0,0,0,0,0,0,0,0,0,0,0,0,0,0,0,0,0,0,0,0,0,0,0,0,0,0,0,0,0,0,0,0,0,0,0,0,0,0,0,0,0,0,0,0,0,0,0,
0,0,0,0,0,0,0,0,0,0,0,0,0,0,0,0,0,0,0,0,0,0,0,0,0,0,0,0,0,0,0,0,0,0,0,0,0,0,0,0,0,0,0,0,0,0,0,0,0,0,0,0,0,0,0,0,0,0,0,0,0,0,0,0,
0,0,0,0,0,0,0,0,0,0,0,0,0,0,0,0,0,0,0,0,0,0,0,0,0,0,0,0,0,0,0,0,0,0,0,0,0,0,0,0,0,0,0,0,0,0,0,0,0,0,0,0,0,0,0,0,0,0,0,0,0,0,0,0,
0,0,0,0,0,0,0,0,0,0,0,0,0,0,0,0,0,0,0,0,0,0,0,0,0,0,0,0,0,0,0,0,0,0,0,0,0,0,0,0,0,0,0,0,0,0,0,0,0,0,0,0,0,0,0,0,0,0,0,0,0,0,0,0,
0,0,0,0,0,0,0,0,0,0,0,0,0,0,0,0,0,0,0,0,0,0,0,0,0,0,0,0,0,0,0,0,0,0,0,0,0,0,0,0,0,0,0,0,0,0,0,0,0,0,0,0,0,0,0,0,0,0,0,0,0,0,0,0,
0,0,0,0,0,0,0,0,0,0,0,0,0,0,0,0,0,0,0,0,0,0,0,0,0,0,0,0,0,0,0,0,0,0,0,0,0,0,0,0,0,0,0,0,0,0,0,0,0,0,0,0,0,0,0,0,0,0,0,0,0,0,0,0,
0,0,0,0,0,0,0,0,0,0,0,0,0,0,0,0,0,0,0,0,0,0,0,0,0,0,0,0,0,0,0,0,0,0,0,0,0,0,0,0,0,0,0,0,0,0,0,0,0,0,0,0,0,0,0,0,0,0,0,0,0,0,0,0,
0,0,0,0,0,0,0,0,0,0,0,0,0,0,0,0,0,0,0,0,0,0,0,0,0,0,0,0,0,0,0,0,0,0,0,0,0,0,0,0,0,0,0,0,0,0,0,0,0,0,0,0,0,0,0,0,0,0,0,0,0,0,0,0,
0,0,0,0,0,0,0,0,0,0,0,0,0,0,0,0,0,0,0,0,0,0,0,0,0,0,0,0,0,0,0,0,0,0,0,0,0,0,0,0,0,0,0,0,0,0,0,0,0,0,0,0,0,0,0,0,0,0,0,0,0,0,0,0,
0,0,0,0,0,0,0,0,0,0,0,0,0,0,0,0,0,0,0,0,0,0,0,0,0,0,0,0,0,0,0,0,0,0,0,0,0,0,0,0,0,0,0,0,0,0,0,0,0,0,0,0,0,0,0,0,0,0,0,0,0,0,0,0,
0,0,0,0,0,0,0,0,0,0,0,0,0,0,0,0,0,0,0,0,0,0,0,0,0,0,0,0,0,0,0,0,0,0,0,0,0,0,0,0,0,0,0,0,0,0,0,0,0,0,0,0,0,0,0,0,0,0,0,0,0,0,0,0,
0,0,0,0,0,0,0,0,0,0,0,0,0,0,0,0,0,0,0,0,0,0,0,0,0,0,0,0,0,0,0,0,0,0,0,0,0,0,0,0,0,0,0,0,0,0,0,0,0,0,0,0,0,0,0,0,0,0,0,0,0,0,0,0
</data>
 </layer>
 <layer id="13" name="trees" width="64" height="64" locked="1">
  <data encoding="csv">
0,0,0,0,0,0,0,0,0,0,0,0,0,0,0,0,0,0,0,0,0,0,0,0,0,0,0,0,0,0,0,6671,6672,0,0,0,0,0,0,0,0,0,0,6671,6672,0,0,0,0,0,0,0,0,0,0,0,0,0,0,0,0,0,0,0,
0,0,0,0,0,0,0,0,0,0,0,0,0,6671,6672,0,0,0,6686,0,0,6686,0,6686,0,6671,6672,0,0,0,0,6680,6681,0,0,0,0,0,0,6671,6672,0,0,6680,6681,0,0,0,0,0,6671,6672,0,0,0,0,0,0,0,0,0,0,0,0,
0,0,0,0,0,0,0,6692,0,0,0,0,0,6680,6681,0,0,6671,6672,0,0,0,0,0,0,6680,6681,0,0,6671,6672,0,0,0,6671,6672,0,0,0,6680,6681,0,0,0,0,0,0,0,0,0,6680,6681,0,6671,6672,0,0,6671,6672,0,0,0,0,0,
0,0,0,0,0,0,0,0,0,0,0,0,0,0,0,0,0,6680,6681,0,0,0,0,0,0,0,0,0,0,6680,6681,0,0,0,6680,6681,0,0,0,0,0,0,6671,6672,0,0,0,0,0,0,0,0,0,6680,6681,0,0,6680,6681,0,0,0,0,0,
0,0,0,0,6671,6672,0,0,0,0,6671,6672,6692,0,6686,0,0,0,6686,0,0,6686,6671,6672,0,0,0,0,0,0,0,0,0,0,0,0,0,0,0,0,0,0,6680,6681,0,0,6671,6672,0,0,0,0,0,0,0,0,0,0,0,0,0,0,0,0,
0,0,0,0,6680,6681,0,0,0,0,6680,6681,0,0,0,0,0,0,0,0,0,0,6680,6681,0,0,0,6686,0,0,0,0,0,6671,6672,0,0,0,6671,6672,0,0,0,0,0,0,6680,6681,0,6671,6672,0,0,0,0,6671,6672,0,0,0,0,0,0,0,
0,0,0,0,0,0,0,0,0,0,0,6671,6672,0,0,0,6671,6672,0,0,0,0,6686,0,0,0,0,0,6671,6672,0,0,0,6680,6681,0,0,0,6680,6681,0,0,0,0,0,0,0,0,0,6680,6681,0,6671,6672,0,6680,6681,0,0,0,6671,6672,0,0,
0,0,6671,6672,0,0,0,0,0,0,0,6680,6681,0,0,0,6680,6681,0,0,0,0,0,0,0,0,0,0,6680,6681,0,0,0,0,0,0,0,0,0,0,0,0,0,0,6671,6672,0,0,0,0,0,0,6680,6681,0,0,0,0,0,0,6680,6681,0,0,
0,0,6680,6681,0,6671,6672,0,0,0,0,0,0,0,0,0,0,0,0,0,0,0,0,0,0,0,0,0,0,0,0,0,0,0,0,0,0,0,0,0,0,0,0,0,6680,6681,0,0,0,0,0,0,0,0,0,0,6671,6672,0,0,0,0,0,0,
0,0,0,0,0,6680,6681,0,0,0,0,0,0,0,0,0,0,0,0,0,0,0,0,0,0,0,0,0,0,0,0,0,0,0,0,0,0,0,0,0,0,0,0,0,0,0,0,0,0,0,0,0,0,0,0,0,6680,6681,0,0,0,0,0,0,
0,0,0,0,0,0,0,0,0,0,0,0,0,0,0,0,0,0,0,0,0,0,0,0,0,0,0,0,0,0,0,0,0,0,0,0,0,0,0,0,0,0,0,0,0,0,0,0,0,0,0,0,0,0,0,0,0,0,0,0,0,0,0,0,
0,0,0,0,0,0,0,0,0,0,0,0,0,0,0,0,0,0,0,0,0,0,0,0,0,0,0,0,0,0,0,0,0,0,0,0,0,0,0,0,0,0,0,0,0,0,0,0,0,0,0,0,0,0,0,0,0,0,0,0,6671,6672,0,0,
0,0,0,0,0,0,0,0,0,0,0,0,0,0,0,0,0,0,0,0,0,0,0,0,0,0,0,0,0,0,0,0,0,0,0,0,0,0,0,0,0,0,0,0,0,0,0,0,0,0,0,0,0,6671,6672,0,0,6671,6672,0,6680,6681,0,0,
0,0,6671,6672,0,0,6671,6672,0,0,0,0,0,0,0,0,0,0,0,0,0,0,0,0,0,0,0,0,0,0,0,0,0,0,0,0,0,0,0,0,0,0,0,0,0,0,0,0,0,0,0,0,0,6680,6681,0,0,6680,6681,0,0,0,0,0,
0,0,6680,6681,0,0,6680,6681,0,0,0,0,0,0,0,0,0,0,0,0,0,0,0,0,0,0,0,0,0,0,0,0,0,0,0,0,0,0,0,0,0,0,0,0,0,0,0,0,0,0,0,0,0,0,0,0,0,0,0,0,0,0,0,0,
0,0,0,0,0,0,6671,6672,0,0,0,0,0,0,0,0,0,0,0,0,0,0,0,0,0,0,0,0,0,0,0,0,0,0,0,0,0,0,0,0,0,0,0,0,0,0,0,0,0,0,0,0,0,0,0,6671,6672,0,0,0,0,0,0,0,
0,0,0,0,0,0,6680,6681,0,0,0,0,0,0,0,0,0,0,0,0,0,0,0,0,0,0,0,0,0,0,0,0,0,0,0,0,0,0,0,0,0,0,0,0,0,0,0,0,0,0,0,0,0,0,0,6680,6681,0,0,0,0,0,0,0,
0,0,0,0,0,0,0,6686,0,0,0,0,0,0,0,0,0,0,0,0,0,0,0,0,0,0,0,0,0,0,0,0,0,0,0,0,0,0,0,0,0,0,0,0,0,0,0,0,0,0,0,0,0,0,0,0,0,0,6671,6672,0,0,0,0,
0,0,6671,6672,0,6686,0,0,0,0,0,0,0,0,0,0,0,0,0,0,0,0,0,0,0,0,0,0,0,0,0,0,0,0,0,0,0,0,0,0,0,0,0,0,0,0,0,0,0,0,0,0,0,0,6671,6672,0,0,6680,6681,0,0,6692,0,
0,0,6680,6681,0,0,0,0,0,0,0,0,0,0,0,0,0,0,0,0,0,0,0,0,0,0,0,0,0,0,0,0,0,0,0,0,0,0,0,0,0,0,0,0,0,0,0,0,0,0,0,0,0,0,6680,6681,0,0,0,0,0,0,0,0,
0,0,0,0,6671,6672,0,0,0,0,0,0,0,0,0,0,0,0,0,0,0,0,0,0,0,0,0,0,0,0,0,0,0,0,0,0,0,0,0,0,0,0,0,0,0,0,0,0,0,0,0,0,0,0,0,0,0,0,0,0,0,0,0,0,
0,0,0,0,6680,6681,0,6686,0,0,0,0,0,0,0,0,0,0,0,0,0,0,0,0,0,0,0,0,0,0,0,0,0,0,0,0,0,0,0,0,0,0,0,0,0,0,0,0,0,0,0,0,0,0,0,0,0,0,0,0,0,0,0,0,
0,0,0,6671,6672,0,0,0,0,0,0,0,0,0,0,0,0,0,0,0,0,0,0,0,0,0,0,0,0,0,0,0,0,0,0,0,0,0,0,0,0,0,0,0,0,0,0,0,0,0,0,0,0,6671,6672,0,0,0,0,0,0,0,0,0,
6671,6672,0,6680,6681,0,0,0,0,0,0,0,0,0,0,0,0,0,0,0,0,0,0,0,0,0,0,0,0,0,0,0,0,0,0,0,0,0,0,0,0,0,0,0,0,0,0,0,0,0,0,0,0,6680,6681,0,0,0,0,0,0,0,0,0,
6680,6681,0,0,0,0,0,0,0,0,0,0,0,0,0,0,0,0,0,0,0,0,0,0,0,0,0,0,0,0,0,0,0,0,0,0,0,0,0,0,0,0,0,0,0,0,0,0,0,0,0,0,0,0,0,0,0,0,0,6671,6672,0,0,0,
0,0,0,0,0,0,0,0,0,0,0,0,0,0,0,0,0,0,0,0,0,0,0,0,0,0,0,0,0,0,0,0,0,0,0,0,0,0,0,0,0,0,0,0,0,0,0,0,0,0,0,0,0,0,0,0,0,0,0,6680,6681,0,0,0,
0,0,6671,6672,0,0,0,6686,0,0,0,0,0,0,0,0,0,0,0,0,0,0,0,0,0,0,0,0,0,0,0,0,0,0,0,0,0,0,0,0,0,0,0,0,0,0,0,0,0,0,0,0,0,0,0,0,0,0,0,0,0,0,0,0,
0,0,6680,6681,0,0,0,0,0,0,0,0,0,0,0,0,0,0,0,0,0,0,0,0,0,0,0,0,0,0,0,0,0,0,0,0,0,0,0,0,0,0,0,0,0,0,0,0,0,0,0,0,0,0,6692,0,0,0,6692,0,0,0,0,0,
0,0,0,0,0,0,0,0,0,0,0,0,0,0,0,0,0,0,0,0,0,0,0,0,0,0,0,0,0,0,0,0,0,0,0,0,0,0,0,0,0,0,0,0,0,0,0,0,0,0,0,0,0,0,0,0,0,0,0,0,0,0,0,0,
0,0,0,0,0,6686,0,0,0,0,0,0,0,0,0,0,0,0,0,0,0,0,0,0,0,0,0,0,0,0,0,0,0,0,0,0,0,0,0,0,0,0,0,0,0,0,0,0,0,0,0,0,0,0,0,0,0,0,0,0,0,0,0,0,
0,0,0,0,0,0,0,0,0,0,0,0,0,0,0,0,0,0,0,0,0,0,0,0,0,0,0,0,0,0,0,0,0,0,0,0,0,0,0,0,0,0,0,0,0,0,0,0,0,0,0,0,0,0,0,0,0,0,0,0,0,0,0,0,
0,0,0,6686,0,0,0,0,0,0,0,0,0,0,0,0,0,0,0,0,0,0,0,0,0,0,0,0,0,0,0,0,0,0,0,0,0,0,0,0,0,0,0,0,0,0,0,0,0,0,0,0,0,0,0,0,0,0,6671,6672,6671,6672,0,0,
0,0,0,0,0,0,6686,0,0,0,0,0,0,0,0,0,0,0,0,0,0,0,0,0,0,0,0,0,0,0,0,0,0,0,0,0,0,0,0,0,0,0,0,0,0,0,0,0,0,0,0,0,0,0,0,0,0,0,6680,6681,6680,6681,0,0,
0,0,0,0,0,0,0,0,0,0,0,0,0,0,0,0,0,0,0,0,0,0,0,0,0,0,0,0,0,0,0,0,0,0,0,0,0,0,0,0,0,0,0,0,0,0,0,0,0,0,0,0,0,0,0,0,6671,6672,0,0,0,0,0,0,
0,0,0,0,0,0,0,0,0,0,0,0,0,0,0,0,0,0,0,0,0,0,0,0,0,0,0,0,0,0,0,0,0,0,0,0,0,0,0,0,0,0,0,0,0,0,0,0,0,0,0,0,0,0,0,0,6680,6681,0,0,0,0,0,0,
0,0,0,0,0,0,0,0,0,0,0,0,0,0,0,0,0,0,0,0,0,0,0,0,0,0,0,0,0,0,0,0,0,0,0,0,0,0,0,0,0,0,0,0,0,0,0,0,0,0,0,0,0,0,0,0,0,0,0,0,0,0,6671,6672,
0,0,6671,6672,6671,6672,0,0,0,0,0,0,0,0,0,0,0,0,0,0,0,0,0,0,0,0,0,0,0,0,0,0,0,0,0,0,0,0,0,0,0,0,0,0,0,0,0,0,0,0,0,0,0,0,0,0,0,0,0,0,0,0,6680,6681,
0,0,6680,6681,6680,6681,0,0,0,0,0,0,0,0,0,0,0,0,0,0,0,0,0,0,0,0,0,0,0,0,0,0,0,0,0,0,0,0,0,0,0,0,0,0,0,0,0,0,0,0,0,0,0,0,0,0,0,0,0,0,0,0,0,0,
0,0,0,0,0,0,0,0,0,0,0,0,0,0,0,0,0,0,0,0,0,0,0,0,0,0,0,0,0,0,0,0,0,0,0,0,0,0,0,0,0,0,0,0,0,0,0,0,0,0,0,0,0,0,0,0,0,0,0,0,0,0,0,0,
0,0,0,0,0,0,0,0,0,0,0,0,0,0,0,0,0,0,0,0,0,0,0,0,0,0,0,0,0,0,0,0,0,0,0,0,0,0,0,0,0,0,0,0,0,0,0,0,0,0,0,0,0,0,0,0,0,0,0,0,6671,6672,0,0,
0,0,0,0,0,0,0,0,0,0,0,0,0,0,0,0,0,0,0,0,0,0,0,0,0,0,0,0,0,0,0,0,0,0,0,0,0,0,0,0,0,0,0,0,0,0,0,0,0,0,0,0,0,0,0,0,0,0,0,0,6680,6681,0,0,
0,0,0,0,0,0,0,0,0,0,0,0,0,0,0,0,0,0,0,0,0,0,0,0,0,0,0,0,0,0,0,0,0,0,0,0,0,0,0,0,0,0,0,0,0,0,0,0,0,0,0,0,0,0,0,0,0,0,0,0,0,0,0,0,
0,0,0,0,0,0,0,0,0,0,0,0,0,0,0,0,0,0,0,0,0,0,0,0,0,0,0,0,0,0,0,0,0,0,0,0,0,0,0,0,0,0,0,0,0,0,0,0,0,0,0,0,0,0,0,0,0,0,0,0,0,0,0,0,
0,0,0,0,0,0,0,0,0,0,0,0,0,0,0,0,0,0,0,0,0,0,0,0,0,0,0,0,0,0,0,0,0,0,0,0,0,0,0,0,0,0,0,0,0,0,0,0,0,0,0,0,0,0,0,0,0,0,0,0,6671,6672,0,0,
0,0,0,0,0,0,0,0,0,0,0,0,0,0,0,0,0,0,0,0,0,0,0,0,0,0,0,0,0,0,0,0,0,0,0,0,0,0,0,0,0,0,0,0,0,0,0,0,0,0,0,0,0,0,0,0,0,0,6671,6672,6680,6681,0,0,
0,0,0,0,0,0,0,6692,0,0,0,0,0,0,0,0,0,0,0,0,0,0,0,0,0,0,0,0,0,0,0,0,0,0,0,0,0,0,0,0,0,0,0,0,0,0,0,0,0,0,0,6671,6672,0,0,0,0,0,6680,6681,0,0,0,0,
0,0,0,0,0,0,0,0,0,0,0,0,0,0,0,0,0,0,0,0,0,0,0,0,0,0,0,0,0,0,0,0,0,0,0,0,0,0,0,0,0,0,0,0,0,0,0,0,0,0,0,6680,6681,0,6671,6672,0,0,0,0,0,0,0,0,
0,0,0,0,0,0,0,0,0,0,0,0,0,0,0,0,0,0,0,0,0,0,0,0,0,0,0,0,0,0,0,0,0,0,0,0,0,0,0,0,0,0,0,0,0,0,0,0,0,0,0,0,0,0,6680,6681,0,6671,6672,0,6671,6672,0,0,
0,0,0,0,0,0,0,0,0,0,0,0,0,0,0,0,0,0,0,0,0,0,0,0,0,0,0,0,0,0,0,0,0,0,0,0,0,0,0,0,0,0,0,0,0,0,0,0,0,0,0,0,0,0,0,0,0,6680,6681,0,6680,6681,0,0,
0,0,0,0,0,0,0,0,0,0,0,0,0,0,0,0,0,0,0,0,0,0,0,0,0,0,0,0,0,0,0,0,0,0,0,0,0,0,0,0,0,0,0,0,0,0,0,0,0,0,0,0,0,0,0,0,0,0,0,0,0,0,0,0,
0,0,0,0,0,0,0,0,0,0,0,0,0,0,0,0,0,0,0,0,0,0,0,0,0,0,0,0,0,0,0,0,0,0,0,0,0,0,0,0,0,0,0,0,0,0,0,0,0,0,0,0,0,0,0,0,0,0,0,0,0,0,0,0,
0,0,0,0,0,6670,0,0,0,0,0,0,0,0,0,0,0,0,0,0,0,0,0,0,0,0,0,0,0,0,0,0,0,0,0,0,0,0,0,0,0,0,0,0,0,0,6686,0,6686,0,0,6686,0,0,0,0,0,0,0,0,0,0,0,0,
0,0,0,0,0,0,0,0,0,0,0,0,6686,0,0,0,0,0,0,0,0,0,0,0,0,0,0,0,0,0,0,0,0,0,0,0,0,0,0,0,0,0,0,0,0,0,0,0,0,0,0,0,0,0,0,0,0,0,0,0,0,0,0,0,
0,0,0,0,0,0,0,0,0,0,0,6686,0,0,0,0,0,0,0,0,0,0,0,0,0,0,0,0,0,0,0,0,0,0,0,0,0,0,6686,0,0,0,0,0,0,0,6686,0,0,0,0,0,0,0,0,0,0,0,0,0,0,0,0,0,
0,0,0,6692,0,0,0,0,0,6686,0,0,0,0,0,0,0,6686,0,0,0,0,0,0,0,0,0,0,0,0,0,0,0,0,0,0,0,0,0,0,0,0,0,0,0,0,0,0,0,0,0,0,0,0,0,0,0,0,0,0,0,0,0,0,
0,0,0,0,0,0,0,0,0,0,0,6686,0,0,0,0,0,0,0,0,0,0,0,0,0,0,0,0,0,6686,0,0,0,0,0,0,0,0,0,0,0,0,0,0,6686,0,0,0,0,0,0,0,0,0,0,0,0,0,0,0,0,0,0,0,
0,0,0,0,0,0,0,0,0,0,0,6686,0,0,0,0,0,0,0,0,0,0,0,0,0,0,0,0,0,0,0,0,0,0,6686,0,0,0,0,0,0,0,0,0,0,0,0,0,0,0,0,0,0,0,0,0,0,0,0,0,0,0,0,0,
0,0,0,0,0,0,0,0,0,0,0,0,0,0,0,0,0,0,0,0,0,0,0,0,0,0,0,0,0,0,0,0,0,0,0,0,0,0,0,0,0,0,0,0,0,0,0,0,0,0,0,0,0,0,0,0,0,0,0,0,0,0,0,0,
0,0,0,0,0,0,0,0,0,0,0,0,0,0,0,0,0,0,0,0,0,0,0,0,0,0,0,0,0,0,0,0,0,0,0,0,0,0,0,0,0,0,0,0,0,0,0,0,0,0,0,0,0,0,0,0,0,0,0,0,0,0,0,0,
0,0,0,0,0,0,0,0,0,0,0,0,0,0,0,0,0,0,0,0,0,0,0,0,0,0,0,0,0,0,0,0,0,0,0,0,0,0,0,0,0,0,0,0,0,0,0,0,0,0,0,0,0,0,0,0,0,0,0,0,0,0,0,0,
0,0,0,0,0,0,0,0,0,0,0,0,0,0,0,0,0,0,0,0,0,0,0,0,0,0,0,0,0,0,0,0,0,0,0,0,0,0,0,0,0,0,0,0,0,0,0,0,0,0,0,0,0,0,0,0,0,0,0,0,0,0,0,0,
0,0,0,6671,6672,0,0,0,0,0,0,6671,6672,0,0,0,0,0,0,6671,6672,0,0,0,0,0,6671,6672,0,0,0,0,0,6671,6672,0,0,0,0,0,6671,6672,0,0,0,0,6671,6672,0,0,0,0,0,6671,6672,0,0,6671,6672,0,0,0,0,0,
0,0,0,6680,6681,0,0,0,0,0,0,6680,6681,0,0,0,0,0,0,6680,6681,0,0,0,0,0,6680,6681,0,0,0,0,0,6680,6681,0,0,0,0,0,6680,6681,0,0,0,0,6680,6681,0,0,0,0,0,6680,6681,0,0,6680,6681,0,0,0,0,0,
0,0,0,0,0,0,0,0,0,0,0,0,0,0,0,0,0,0,0,0,0,0,0,0,0,0,0,0,0,0,0,0,0,0,0,0,0,0,0,0,0,0,0,0,0,0,0,0,0,0,0,0,0,0,0,0,0,0,0,0,0,0,0,0
</data>
 </layer>
</map>
